X:151
T:Bona Roba. JJo8.151, The
%%VWML:JohnsonVol8-2184-p76-0
F:http://www.vwml.org/record/JohnsonVol8/2184/p76
Z:Transcribed by Simon Furey and Lewis Jones
Z:vmp.Simon Wilson 2013 www.village-music-project.org.uk
Z:Dance added by John Chambers 2017
M:6/8
L:1/8
%Q:3/8=110
K:F
|:\
CFA c2A | CEG B2A | CFA c2A | GEC C3 |\
CFA c2A | G=Bd f2g | edc fed | .c-.c-.c c3 :|
|:\
ceg b2g | fdf a2g | fag fed | eA^c d2e |\
faf cAF | CEG B2c | AGF BAG | .F-.F-.F F3 :|
W: First Man turn the 2d Wo. .| 1st
W:Wo. turn the 2d Man :| lead down
W:the Middle, then up and cast off |.
W:Right and Left at top :|:
W:
T:Prince George's March. JJo8.152
B:J.Johnson Choice Collection Vol 8 1758
Z:vmp.Simon Wilson 2013 www.village-music-project.org.uk
Z:Dance added by John Chambers 2017
M:C|
L:1/8
%Q:1/2=100
K:D
|:\
A2FG A2d2 | f2ed e2A2 | B2dB A2de | f2ed e4 |\
A2FG A2d2 | f2ed e2f^g | a2^gf e2Bd | c2B2 A4 :|
|:\
f2cd e2e2 | EFG2 TG2F2 | EFG2 FAd2 | {ef}g2f2 e3A |\
a2gf g2A2 | g2fe f2D2 | d2cB A2EG | F2E2 D4 :|
W: First Cu. cast off and hands 4 round
W:with the 3d Cu. .| cast up and hands 4
W:round at top :| cross over and turn |.
W:Right and Left at top :|:
W:
